icons/glyphs/glyph-table.svg

<?xml version="1.0" encoding="UTF-8" standalone="no"?><svg height="16" viewBox="0 0 4.2333332 4.2333332" width="16" xmlns="http://www.w3.org/2000/svg"><sodipodi:namedview/><metadata><rdf:RDF><cc:Work><dc:format>image/svg+xml</dc:format><dc:type/><dc:title/></cc:Work></rdf:RDF></metadata><path d="m0 0v2.5433594h4.8222656v-2.5433594z" fill="#0f0" stroke-width="2.2142" transform="scale(.26458333)"/><path d="m5.8476562 0v2.5429688h4.3066408v-2.5429688zm5.3300778 0v2.5429688h4.822266v-2.5429688zm-11.177734 3.5683594v5.4746094h4.8222656v-5.4746094zm5.8476562 0v5.4746094h4.3066408v-5.4746094zm5.3300778 0v5.4746094h4.822266v-5.4746094zm-11.177734 6.4589846v5.972656h4.8222656v-5.972656zm5.8476562 0v5.972656h4.3066408v-5.972656zm5.3300778 0v5.972656h4.822266v-5.972656z" fill="#d0d0d0" stroke-width="2.2142" transform="scale(.26458333)"/></svg>

<?xml version="1.0" encoding="UTF-8" standalone="no"?>
<svg
   xmlns:dc="http://purl.org/dc/elements/1.1/"
   xmlns:cc="http://creativecommons.org/ns#"
   xmlns:rdf="http://www.w3.org/1999/02/22-rdf-syntax-ns#"
   xmlns:svg="http://www.w3.org/2000/svg"
   xmlns="http://www.w3.org/2000/svg"
   xmlns:sodipodi="http://sodipodi.sourceforge.net/DTD/sodipodi-0.dtd"
   xmlns:inkscape="http://www.inkscape.org/namespaces/inkscape"
   height="16"
   viewBox="0 0 4.2333332 4.2333332"
   width="16"
   version="1.1"
   id="svg839"
   sodipodi:docname="glyph-table.svg"
   inkscape:version="0.92+devel (4754229fb9, 2017-09-06, custom)">
  <defs
     id="defs841" />
  <sodipodi:namedview
     id="namedview831"
     inkscape:document-rotation="0"
     showgrid="false"
     pagecolor="#002466"
     inkscape:pageopacity="0"
     borderlayer="true"
     inkscape:showpageshadow="false"
     bordercolor="#ffffff"
     borderopacity="0.26666667"
     inkscape:zoom="45.9375"
     inkscape:cx="7.9673469"
     inkscape:cy="8"
     inkscape:window-width="1920"
     inkscape:window-height="1025"
     inkscape:window-x="0"
     inkscape:window-y="26"
     inkscape:window-maximized="1"
     inkscape:current-layer="svg839" />
  <metadata
     id="metadata833">
    <rdf:RDF>
      <cc:Work>
        <dc:format>image/svg+xml</dc:format>
        <dc:type
           rdf:resource="http://purl.org/dc/dcmitype/StillImage" />
        <dc:title></dc:title>
      </cc:Work>
    </rdf:RDF>
  </metadata>
  <path
     d="m0 0v2.5433594h4.8222656v-2.5433594z"
     fill="#0f0"
     stroke-width="2.2142"
     transform="scale(.26458333)"
     id="path835" />
  <path
     d="M 5.8476562,0 V 2.5429688 H 10.154297 V 0 Z"
     transform="scale(0.26458333)"
     id="path1400" />
  <path
     d="M 11.177734,0 V 2.5429688 H 16 V 0 Z"
     transform="scale(0.26458333)"
     id="path1398" />
  <path
     d="M 0,3.5683594 V 9.0429688 H 4.8222656 V 3.5683594 Z"
     transform="scale(0.26458333)"
     id="path1396" />
  <path
     d="M 5.8476562,3.5683594 V 9.0429688 H 10.154297 V 3.5683594 Z"
     transform="scale(0.26458333)"
     id="path1394" />
  <path
     d="M 11.177734,3.5683594 V 9.0429688 H 16 V 3.5683594 Z"
     transform="scale(0.26458333)"
     id="path1392" />
  <path
     d="M 0,10.027344 V 16 h 4.8222656 v -5.972656 z"
     transform="scale(0.26458333)"
     id="path1390" />
  <path
     d="M 5.8476562,10.027344 V 16 h 4.3066408 v -5.972656 z"
     transform="scale(0.26458333)"
     id="path1388" />
  <path
     d="M 11.177734,10.027344 V 16 H 16 v -5.972656 z"
     transform="scale(0.26458333)"
     id="path837" />
</svg>
